static/assets/template/assets/img/icons/essential/detailed/Banana.svg

<svg height="148" viewBox="0 0 110 148" width="110" xmlns="http://www.w3.org/2000/svg"><g fill="none" fill-rule="evenodd" transform="translate(1 1)"><path d="m70.5 76.4c-4.3 20.8-14.5 48.7-39.6 50-16.1.8-8.1-1.2-30.1 18.9 0 0 2.4-15.5 2.4-15.5.2-1 5-3.2 6-3.8 3.7-2.5 6.3-6 9.3-9.3 7.7-8.4 14.4-21.3 17.9-35.3 10.7-43-1.4-55.8-5.3-67.7-1.4-4.2-.9-9 3.2-11.5 11-6.6 21.4 10.8 26.1 18.2 11.2 17.6 14.1 36.8 10.1 56z" fill-rule="nonzero"/><path d="m49.4 46c-.2-.8-.4-1.7-.7-2.6" stroke-linecap="round" stroke-linejoin="round" stroke-width="3"/><path d="m48.7 71.5c1.6-7.3 2.4-12.6 1.9-18.3" stroke-linecap="round" stroke-linejoin="round" stroke-width="3"/><g fill-rule="nonzero"><path d="m40 68.1c-10.8-11.9-21.5-7-36.2 6.2-.4.4-.8.7-1.2 1.1 6.5-26.3 21-32.8 35.5-24.3l.4 3.5z"/><path d="m106.6 94.5c-.1 2-.2 4.2-.4 6.4-6.3-19-22.9-34.4-34.5-32.3-.1 0-.3 0-.4.1l1.5-15.7c10.2.1 34.9 6.3 33.8 41.5z"/><path d="m40 68.1c-10.8-11.9-21.5-7-36.2 6.2 7-22.9 21.9-26.8 35.7-18.3z"/><path d="m106.6 94.5c-.1 2-.2 4.2-.4 6.4-6.3-19-22.9-34.4-34.5-32.3l1.1-11.3c9.7.1 32.8 5.8 33.8 37.2z"/><path d="m71.7 68.6c-.3 2.6-.7 5.2-1.3 7.9-4.3 20.8-14.5 48.7-39.6 50-16.1.8-8.1-1.2-30.1 18.9l2.4-15.5c.2-1 5-3.2 6-3.8 3.7-2.5 6.3-6 9.3-9.3 7.7-8.4 14.4-21.3 17.9-35.3 1.3-5.2 2.3-10 3-14.4 2.9 2 6.1 3.6 9.5 4.5 7.6 1.9 15.8.6 22.9-3z" fill="#bad8ff"/><path d="m41.1 70.4c.2 9.4 1.8 15.7-1.6 28s8.8 11.7 19.6-3.6c8-11.4 10.4-15.3 11.4-25.2 0 0-5.2 1.7-12.8 2-9.5-.4-16.6-1.2-16.6-1.2z"/></g><path d="m39.8 69c8.4 2.7 24.6 5 31.4.2" stroke-linecap="round" stroke-linejoin="round" stroke-width="3"/><path d="m41.1 70.4c.2 9.4 1.8 15.7-1.6 28s8.8 11.7 19.6-3.6c8-11.4 10.4-15.3 11.4-25.2" stroke-linecap="round" stroke-linejoin="round" stroke-width="3"/><path d="m39.2 67.2c-10.8-11-21.6-5.5-36.6 8.2 6.8-27.5 22.3-33.4 37.4-23.1" stroke-linecap="round" stroke-linejoin="round" stroke-width="3"/><path d="m72.7 52.9c10.9.2 37.9 7.1 33.4 47.9-6.2-18.8-22.6-34.2-34.2-32.4" stroke-linecap="round" stroke-linejoin="round" stroke-width="3"/><path d="m70.5 76.4c-4.3 20.8-14.5 48.7-39.6 50-16.1.8-8.1-1.2-30.1 18.9 0 0 2.4-15.5 2.4-15.5.2-1 5-3.2 6-3.8 3.7-2.5 6.3-6 9.3-9.3 7.7-8.4 14.4-21.3 17.9-35.3 10.7-43-1.4-55.8-5.3-67.7-1.4-4.2-.9-9 3.2-11.5 11-6.6 21.4 10.8 26.1 18.2 11.2 17.6 14.1 36.8 10.1 56z" stroke-linecap="round" stroke-linejoin="round" stroke-width="3"/><path d="m71.7 68.6c-7.1 3.7-15.3 5-23 2.9-3.4-.9-6.6-2.5-9.5-4.5-3.4-2.4-6.2-5.4-8.4-8.9"/><path d="m51.7 24.4c-1.1-1.9-2.2-3.7-3.5-5.5" stroke-linecap="round" stroke-linejoin="round" stroke-width="3"/><path d="m58.7 41.2c-1.1-3.9-2.5-7.8-4.3-11.6" stroke-linecap="round" stroke-linejoin="round" stroke-width="3"/><path d="m60.1 47.1v-.1" stroke-linecap="round" stroke-linejoin="round" stroke-width="3"/></g></svg>

<?xml version="1.0" encoding="UTF-8"?>
<svg width="110px" height="148px" viewBox="0 0 110 148" version="1.1" xmlns="http://www.w3.org/2000/svg" xmlns:xlink="http://www.w3.org/1999/xlink">
    <!-- Generator: Sketch 51.2 (57519) - http://www.bohemiancoding.com/sketch -->
    <title>Banana</title>
    <desc>Created with Sketch.</desc>
    <defs></defs>
    <g id="Page-1" stroke="none" stroke-width="1" fill="none" fill-rule="evenodd">
        <g id="Banana" transform="translate(1.000000, 1.000000)">
            <path d="M70.5,76.4 C66.2,97.2 56,125.1 30.9,126.4 C14.8,127.2 22.8,125.2 0.8,145.3 C0.8,145.3 3.2,129.8 3.2,129.8 C3.4,128.8 8.2,126.6 9.2,126 C12.9,123.5 15.5,120 18.5,116.7 C26.2,108.3 32.9,95.4 36.4,81.4 C47.1,38.4 35,25.6 31.1,13.7 C29.7,9.5 30.2,4.7 34.3,2.2 C45.3,-4.4 55.7,13 60.4,20.4 C71.6,38 74.5,57.2 70.5,76.4 Z" id="Shape" class="fill-neutral" fill-rule="nonzero"></path>
            <path d="M49.4,46 C49.2,45.2 49,44.3 48.7,43.4" id="Shape" class="stroke-primary-200" stroke-width="3" stroke-linecap="round" stroke-linejoin="round"></path>
            <path d="M48.7,71.5 C50.3,64.2 51.1,58.9 50.6,53.2" id="Shape" class="stroke-primary-200" stroke-width="3" stroke-linecap="round" stroke-linejoin="round"></path>
            <path d="M40,68.1 C29.2,56.2 18.5,61.1 3.8,74.3 C3.4,74.7 3,75 2.6,75.4 C9.1,49.1 23.6,42.6 38.1,51.1 L38.5,54.6 L40,68.1 Z" id="Shape" class="fill-neutral" fill-rule="nonzero"></path>
            <path d="M106.6,94.5 C106.5,96.5 106.4,98.7 106.2,100.9 C99.9,81.9 83.3,66.5 71.7,68.6 C71.6,68.6 71.4,68.6 71.3,68.7 L72.8,53 C83,53.1 107.7,59.3 106.6,94.5 Z" id="Shape" class="fill-neutral" fill-rule="nonzero"></path>
            <path d="M40,68.1 C29.2,56.2 18.5,61.1 3.8,74.3 C10.8,51.4 25.7,47.5 39.5,56 L40,68.1 Z" id="Shape" class="fill-primary-400" fill-rule="nonzero"></path>
            <path d="M106.6,94.5 C106.5,96.5 106.4,98.7 106.2,100.9 C99.9,81.9 83.3,66.5 71.7,68.6 L72.8,57.3 C82.5,57.4 105.6,63.1 106.6,94.5 Z" id="Shape" class="fill-primary-400" fill-rule="nonzero"></path>
            <path d="M71.7,68.6 C71.4,71.2 71,73.8 70.4,76.5 C66.1,97.3 55.9,125.2 30.8,126.5 C14.7,127.3 22.7,125.3 0.7,145.4 L3.1,129.9 C3.3,128.9 8.1,126.7 9.1,126.1 C12.8,123.6 15.4,120.1 18.4,116.8 C26.1,108.4 32.8,95.5 36.3,81.5 C37.6,76.3 38.6,71.5 39.3,67.1 C42.2,69.1 45.4,70.7 48.8,71.6 C56.4,73.5 64.6,72.2 71.7,68.6 Z" id="Shape" fill="#BAD8FF" fill-rule="nonzero"></path>
            <path d="M41.1,70.4 C41.3,79.8 42.9,86.1 39.5,98.4 C36.1,110.7 48.3,110.1 59.1,94.8 C67.1,83.4 69.5,79.5 70.5,69.6 C70.5,69.6 65.3,71.3 57.7,71.6 C48.2,71.2 41.1,70.4 41.1,70.4 Z" id="Shape" class="fill-primary-400" fill-rule="nonzero"></path>
            <path d="M39.8,69 C48.2,71.7 64.4,74 71.2,69.2" id="Shape" class="stroke-primary" stroke-width="3" stroke-linecap="round" stroke-linejoin="round"></path>
            <path d="M41.1,70.4 C41.3,79.8 42.9,86.1 39.5,98.4 C36.1,110.7 48.3,110.1 59.1,94.8 C67.1,83.4 69.5,79.5 70.5,69.6" id="Shape" class="stroke-primary" stroke-width="3" stroke-linecap="round" stroke-linejoin="round"></path>
            <path d="M39.2,67.2 C28.4,56.2 17.6,61.7 2.6,75.4 C9.4,47.9 24.9,42 40,52.3" id="Shape" class="stroke-primary" stroke-width="3" stroke-linecap="round" stroke-linejoin="round"></path>
            <path d="M72.7,52.9 C83.6,53.1 110.6,60 106.1,100.8 C99.9,82 83.5,66.6 71.9,68.4" id="Shape" class="stroke-primary" stroke-width="3" stroke-linecap="round" stroke-linejoin="round"></path>
            <path d="M70.5,76.4 C66.2,97.2 56,125.1 30.9,126.4 C14.8,127.2 22.8,125.2 0.8,145.3 C0.8,145.3 3.2,129.8 3.2,129.8 C3.4,128.8 8.2,126.6 9.2,126 C12.9,123.5 15.5,120 18.5,116.7 C26.2,108.3 32.9,95.4 36.4,81.4 C47.1,38.4 35,25.6 31.1,13.7 C29.7,9.5 30.2,4.7 34.3,2.2 C45.3,-4.4 55.7,13 60.4,20.4 C71.6,38 74.5,57.2 70.5,76.4 Z" id="Shape" class="stroke-primary" stroke-width="3" stroke-linecap="round" stroke-linejoin="round"></path>
            <path d="M71.7,68.6 C64.6,72.3 56.4,73.6 48.7,71.5 C45.3,70.6 42.1,69 39.2,67 C35.8,64.6 33,61.6 30.8,58.1" id="Shape"></path>
            <path d="M51.7,24.4 C50.6,22.5 49.5,20.7 48.2,18.9" id="Shape" class="stroke-primary-200" stroke-width="3" stroke-linecap="round" stroke-linejoin="round"></path>
            <path d="M58.7,41.2 C57.6,37.3 56.2,33.4 54.4,29.6" id="Shape" class="stroke-primary-200" stroke-width="3" stroke-linecap="round" stroke-linejoin="round"></path>
            <path d="M60.1,47.1 C60.1,47.1 60.1,47 60.1,47" id="Shape" class="stroke-primary-200" stroke-width="3" stroke-linecap="round" stroke-linejoin="round"></path>
        </g>
    </g>
</svg>
